src/assets/outline/Lifebuoy.svg

<svg width="24" height="24" viewBox="0 0 24 24"  xmlns="http://www.w3.org/2000/svg">
<path d="M11.9702 22.75C6.05021 22.75 1.22021 17.93 1.22021 12C1.22021 6.07 6.05021 1.25 11.9702 1.25C17.8902 1.25 22.7202 6.07 22.7202 12C22.7202 17.93 17.9002 22.75 11.9702 22.75ZM11.9702 2.75C6.87021 2.75 2.72021 6.9 2.72021 12C2.72021 17.1 6.87021 21.25 11.9702 21.25C17.0702 21.25 21.2202 17.1 21.2202 12C21.2202 6.9 17.0702 2.75 11.9702 2.75Z" />
<path d="M12 17.25C9.1 17.25 6.75 14.89 6.75 12C6.75 9.11 9.1 6.75 12 6.75C14.9 6.75 17.25 9.11 17.25 12C17.25 14.89 14.9 17.25 12 17.25ZM12 8.25C9.93 8.25 8.25 9.93 8.25 12C8.25 14.07 9.93 15.75 12 15.75C14.07 15.75 15.75 14.07 15.75 12C15.75 9.93 14.07 8.25 12 8.25Z" />
<path d="M8.43984 9.21012C8.24984 9.21012 8.04984 9.14012 7.90984 9.00012L4.36984 5.46012C4.07984 5.17012 4.07984 4.69012 4.36984 4.40012C4.65984 4.11012 5.13984 4.11012 5.42984 4.40012L8.96984 7.94012C9.25984 8.23012 9.25984 8.70012 8.96984 9.00012C8.81984 9.14012 8.62984 9.21012 8.43984 9.21012Z" />
<path d="M4.89984 19.8202C4.70984 19.8202 4.51984 19.7502 4.36984 19.6002C4.07984 19.3102 4.07984 18.8302 4.36984 18.5402L7.90984 15.0002C8.19984 14.7102 8.67984 14.7102 8.96984 15.0002C9.25984 15.2902 9.25984 15.7702 8.96984 16.0602L5.42984 19.6002C5.28984 19.7502 5.08984 19.8202 4.89984 19.8202Z" />
<path d="M19.0399 19.8202C18.8499 19.8202 18.6599 19.7502 18.5099 19.6002L14.9699 16.0602C14.6799 15.7702 14.6799 15.2902 14.9699 15.0002C15.2599 14.7102 15.7399 14.7102 16.0299 15.0002L19.5699 18.5402C19.8599 18.8302 19.8599 19.3102 19.5699 19.6002C19.4299 19.7502 19.2399 19.8202 19.0399 19.8202Z" />
<path d="M15.5102 9.20986C15.3202 9.20986 15.1302 9.13986 14.9802 8.98986C14.6902 8.69986 14.6902 8.21986 14.9802 7.92986L18.5202 4.38986C18.8102 4.09986 19.2902 4.09986 19.5802 4.38986C19.8702 4.67986 19.8702 5.15986 19.5802 5.44986L16.0402 8.99986C15.8902 9.13986 15.7002 9.20986 15.5102 9.20986Z" />
</svg>

<?xml version="1.0" encoding="UTF-8"?>
<svg width="24" height="24" viewBox="0 0 24 24" xmlns="http://www.w3.org/2000/svg">
 <path d="m11.97 22.75c-5.92 0-10.75-4.82-10.75-10.75s4.83-10.75 10.75-10.75c5.92 0 10.75 4.82 10.75 10.75s-4.82 10.75-10.75 10.75zm0-20c-5.1 0-9.25 4.15-9.25 9.25s4.15 9.25 9.25 9.25c5.1 0 9.25-4.15 9.25-9.25s-4.15-9.25-9.25-9.25z"/>
 <path d="m12 17.25c-2.9 0-5.25-2.36-5.25-5.25s2.35-5.25 5.25-5.25 5.25 2.36 5.25 5.25-2.35 5.25-5.25 5.25zm0-9c-2.07 0-3.75 1.68-3.75 3.75s1.68 3.75 3.75 3.75 3.75-1.68 3.75-3.75-1.68-3.75-3.75-3.75z"/>
 <path d="m8.4398 9.2101c-0.19 0-0.39-0.07-0.53-0.21l-3.54-3.54c-0.29-0.29-0.29-0.77 0-1.06s0.77-0.29 1.06 0l3.54 3.54c0.29 0.29 0.29 0.76 0 1.06-0.15 0.14-0.34 0.21-0.53 0.21z"/>
 <path d="m4.8998 19.82c-0.19 0-0.38-0.07-0.53-0.22-0.29-0.29-0.29-0.77 0-1.06l3.54-3.54c0.29-0.29 0.77-0.29 1.06 0s0.29 0.77 0 1.06l-3.54 3.54c-0.14 0.15-0.34 0.22-0.53 0.22z"/>
 <path d="m19.04 19.82c-0.19 0-0.38-0.07-0.53-0.22l-3.54-3.54c-0.29-0.29-0.29-0.77 0-1.06s0.77-0.29 1.06 0l3.54 3.54c0.29 0.29 0.29 0.77 0 1.06-0.14 0.15-0.33 0.22-0.53 0.22z"/>
 <path d="m15.51 9.2099c-0.19 0-0.38-0.07-0.53-0.22-0.29-0.29-0.29-0.77 0-1.06l3.54-3.54c0.29-0.29 0.77-0.29 1.06 0s0.29 0.77 0 1.06l-3.54 3.55c-0.15 0.14-0.34 0.21-0.53 0.21z"/>
</svg>
